X: 272
T:the Fochabers Rant
B:William Marshall's Scottish Airs, Melodies, Strathspeys, Reels &c (1822)
C:William Marshall
L:1/8
M:C|
O:Scotland
R:Reel
Z:Clark Bernst + Richard Robinson
%%Page:41 - 2
F:http://richardrobinson.tunebook.org.uk/tune/4115
%%TBL:{"version":1,"type":"tune","id":"4115"}
K:G
%%staves {1 2}
V:1
!trill!g2 (bg) afgd | !trill!g2 (bg) af g2 | !trill!g2 bg afge | =fdcf AFcA ::
(Bc/d/) (BG) ecdc | (Bc/d/) (BG) gB d2 | (Bc/d/) BG ecdB | cA=FA fA c2 |
(Bc/d/) (BG) ecdc | (Bc/d/) (BG) gB d2 | (Bc/d/) BG ecdB | cA=FA fA c2 :|
V:2 middle=d clef=bass
L:1/4
g[gb][dc'][gb] | g[gb][dc'][gb] | g[gb][dc'][B=b] | fcff :| \
Gggg | Gggg | Gggg | ffff | Gggg | Gggg | Gggg | ffff |]

